X:01
T:Russian Dance. MBe.01, The
S:Matthew Betham MS, Towcett Cumbria, 1815
O:England;Cumbria;Towcett
Z:VMP – Hugh Taylor, 2012
M:2/4
L:1/8
Q:1/2=80
C:”Let Thy Head Rule”
N:The name of this dance has been copied out in a different hand
N:along with the inscription ‘Let thy head rule’.
K:G
DG|B2 DG|B2 DB|dcBc|A2 DF|A2 DF|A2 DA|Bc AB|”^sic”G3:|
|:dc|B2 BA|G2 gf|e2 ed|e2 AB|AG FA|d2 F2|GF GA|”^sic”G3:|

